!!!OTL: Danianzi qileshou
!!!ARE: Asia, China,ÿAnhui Fengyang
!!!SCT: C2055
!!!YEM: Copyright 1995, estate of Helmut Schaffrath.
**kern
*ICvox
*Ivox
*M2/4
*k[]
*C:
{8e
8g
8cc
8a
=1
4.g
8a
=2
8e
8g
8cc
8a
=3
2g}
=4
{8g
8g
8e
8g
=5
8a
4g
8a
=6
8a
8cc
8ee
8dd
=7
2cc}
=8
{8g
8g
8e
8g
=9
8a
4g
8a
=10
8a
8cc
8ee
8dd
=11
2cc}
=12
{8cc
8dd
4ee
=13
8dd
8ee
8b
8a
=14
8g
8a
8dd
8b
=15
8dd
8b
8a
8a
=16
2g}
==
!!!AGN: Xiaodiao
!!!AMT: simple duple
!!!AIN: vox
!!!EED: Helmut Schaffrath
!!!EEV: 1.0
*-
